icons/relative-direction-24.svg

<svg id="icons" xmlns="http://www.w3.org/2000/svg" viewBox="0 0 24 24"><defs><style>.cls-1{fill:none;}</style></defs><path d="M15.6958,7A16.78157,16.78157,0,0,0,7,3.90436V3.02118a17.89986,17.89986,0,0,1,9,3.11194V4h1V8H13V7Zm2.87067,1.99994L6,21.56641V24H3V21H4V19H5v2h.43359L18,8.43359V5.99994h3v3ZM5,22H4v1H5ZM19,7.99994h1v-1H19ZM4,18H5V16H4Zm1-5H4v2H5Zm0-3H4v2H5ZM5,7H4V9H5ZM4,4H3V1H6V4H5V6H4ZM4,3H5V2H4Z"/><rect class="cls-1" width="24" height="24"/></svg>

<svg xmlns="http://www.w3.org/2000/svg" viewBox="0 0 24 24"><path d="M15.696 7A16.782 16.782 0 0 0 7 3.904v-.883a17.9 17.9 0 0 1 9 3.112V4h1v4h-4V7zm2.87 2L6 21.566V24H3v-3h1v-2h1v2h.434L18 8.434V6h3v3zM5 22H4v1h1zM19 8h1V7h-1zM4 18h1v-2H4zm1-5H4v2h1zm0-3H4v2h1zm0-3H4v2h1zM4 4H3V1h3v3H5v2H4zm0-1h1V2H4z"/><path fill="none" d="M0 0h24v24H0z"/></svg>
